assets/svg/tools/stackoverflow.svg

<?xml version="1.0" encoding="UTF-8"?>
<svg width="24px" height="24px" viewBox="0 0 24 24" version="1.1" xmlns="http://www.w3.org/2000/svg">
    <defs>
        <linearGradient id="stackoverflowGradient" x1="0%" y1="0%" x2="100%" y2="100%">
            <stop offset="0%" style="stop-color:#FB8C00"/>
            <stop offset="50%" style="stop-color:#F57C00"/>
            <stop offset="100%" style="stop-color:#EF6C00"/>
        </linearGradient>
    </defs>
    <path d="M15 21h-10v-2h10v2zm6-11.665l-1.621-9.335-1.993.346 1.62 9.335 1.994-.346zm-5.964 6.937l-9.746-.975-.186 2.016 9.755.879.177-1.92zm.538-2.587l-9.276-2.608-.526 1.954 9.306 2.5.496-1.846zm1.204-2.413l-8.297-4.864-1.029 1.743 8.298 4.865 1.028-1.744zm1.866-1.467l-5.339-7.829-1.672 1.14 5.339 7.829 1.672-1.14zm-2.644 4.195v8h-12v-8h-2v10h16v-10h-2z" fill="url(#stackoverflowGradient)"/>
</svg>

<svg xmlns="http://www.w3.org/2000/svg" width="24" height="24"><defs><linearGradient id="a" x1="0%" x2="100%" y1="0%" y2="100%"><stop offset="0%" style="stop-color:#fb8c00"/><stop offset="50%" style="stop-color:#f57c00"/><stop offset="100%" style="stop-color:#ef6c00"/></linearGradient></defs><path fill="url(#a)" d="M15 21H5v-2h10zm6-11.665L19.379 0l-1.993.346 1.62 9.335zm-5.964 6.937-9.746-.975-.186 2.016 9.755.879zm.538-2.587-9.276-2.608-.526 1.954 9.306 2.5zm1.204-2.413L8.481 6.408 7.452 8.151l8.298 4.865zm1.866-1.467-5.339-7.829-1.672 1.14 5.339 7.829zM16 14v8H4v-8H2v10h16V14z"/></svg>
